X: 13863
T: Fox And The Geese, The
R: jig
M: 6/8
K: Gmajor
|:D|G2 d dcB|A2 B c3|BAG c2 B|ABG FED|
G2 d dcB|A2 B c2 A|BAG c2 B|AGF G2:|
|:A|F2 G AFD|F2 G ABc|dBG d2 B|dBG dcB|
F2 G A2 D|F2 G AA/B/c|dBG c2 B|AGF G2:|

